X:1
T: Chandler's Hornpipe
P:Ryan's Version
R:Reel
Q: 232
K:C
M:4/4
L:1/8
|:GF|EG ce g2 GE|FA cf a2 ba|ge cB ce ge|f2 d2 d2 GF|
EG ce g2 GE|FA cf a2 ba|ge cB cd ec|1d2 c2 c2:|2d2 c2 c2 fg|
|:aA cf a2 ba|gG ce g2 ag|fG Bd ba fd|cB cd e2 fg|
aA cf a2 ba|gG ce g2 ag|^fg ba g=f ed|1e2 c2 c2 fg:|2e2 c2 c2||
